src/assets/filled/PrinterSlash.svg

<svg width="24" height="24" viewBox="0 0 24 24"  xmlns="http://www.w3.org/2000/svg">
<path d="M6 7C4 7 3 8 3 10V15C3 17 4 18 6 18L8 16V15H9L17 7H6ZM7 11.75C6.59 11.75 6.25 11.41 6.25 11C6.25 10.59 6.59 10.25 7 10.25H9C9.41 10.25 9.75 10.59 9.75 11C9.75 11.41 9.41 11.75 9 11.75H7Z" />
<path d="M9 15L8 16V15H9Z" />
<path d="M17 5V7H7V5C7 3.34 8.34 2 10 2H14C15.66 2 17 3.34 17 5Z" />
<path d="M22.5299 1.47043C22.2399 1.18043 21.7599 1.18043 21.4699 1.47043L1.46994 21.4704C1.17994 21.7604 1.17994 22.2404 1.46994 22.5304C1.61994 22.6804 1.80994 22.7504 1.99994 22.7504C2.18994 22.7504 2.37994 22.6804 2.52994 22.5304L22.5299 2.53043C22.8199 2.24043 22.8199 1.76043 22.5299 1.47043Z" />
<path d="M17.0001 14.25H12.9572C12.8246 14.25 12.6974 14.3027 12.6037 14.3964L12.0001 15L11.2501 15.75L8.80011 18.2C8.16011 18.84 8.03011 20 8.55011 20.74C9.09011 21.5 9.99011 22 11.0001 22H13.0001C14.6601 22 16.0001 20.66 16.0001 19V15.75H17.0001C17.4101 15.75 17.7501 15.41 17.7501 15C17.7501 14.59 17.4101 14.25 17.0001 14.25Z" />
<path d="M19.02 7.98012L15.46 11.5401C14.83 12.1701 15.28 13.2501 16.17 13.2501H16.91C17.78 13.2501 18.59 13.8401 18.73 14.7001C18.8812 15.6155 18.313 16.4391 17.4934 16.6796C17.2284 16.7573 17 16.974 17 17.2501V17.5001C17 17.7763 17.2239 18.0001 17.5 18.0001H18C19.66 18.0001 21 16.6601 21 15.0001V10.0001C21 9.21012 20.84 8.57012 20.53 8.09012C20.19 7.58012 19.45 7.55012 19.02 7.98012Z" />
</svg>

<?xml version="1.0" encoding="UTF-8"?>
<svg width="24" height="24" viewBox="0 0 24 24" xmlns="http://www.w3.org/2000/svg">
 <path d="m6 7c-2 0-3 1-3 3v5c0 2 1 3 3 3l2-2v-1h1l8-8h-11zm1 4.75c-0.41 0-0.75-0.34-0.75-0.75s0.34-0.75 0.75-0.75h2c0.41 0 0.75 0.34 0.75 0.75s-0.34 0.75-0.75 0.75h-2z"/>
 <path d="m9 15-1 1v-1h1z"/>
 <path d="m17 5v2h-10v-2c0-1.66 1.34-3 3-3h4c1.66 0 3 1.34 3 3z"/>
 <path d="m22.53 1.4704c-0.29-0.29-0.77-0.29-1.06 0l-20 20c-0.29 0.29-0.29 0.77 0 1.06 0.15 0.15 0.34 0.22 0.53 0.22s0.38-0.07 0.53-0.22l20-20c0.29-0.29 0.29-0.77 0-1.06z"/>
 <path d="m17 14.25h-4.0429c-0.1326 0-0.2598 0.0527-0.3535 0.1464l-3.8036 3.8036c-0.64 0.64-0.77 1.8-0.25 2.54 0.54 0.76 1.44 1.26 2.45 1.26h2c1.66 0 3-1.34 3-3v-3.25h1c0.41 0 0.75-0.34 0.75-0.75s-0.34-0.75-0.75-0.75z"/>
 <path d="m19.02 7.9801-3.56 3.56c-0.63 0.63-0.18 1.71 0.71 1.71h0.74c0.87 0 1.68 0.59 1.82 1.45 0.1512 0.9154-0.417 1.739-1.2366 1.9795-0.265 0.0777-0.4934 0.2944-0.4934 0.5705v0.25c0 0.2762 0.2239 0.5 0.5 0.5h0.5c1.66 0 3-1.34 3-3v-5c0-0.78998-0.16-1.43-0.47-1.91-0.34-0.51-1.08-0.54-1.51-0.11z"/>
</svg>
